build/communication/NoWifiOutline.svg

<svg xmlns="http://www.w3.org/2000/svg" fill="none" viewBox="0 0 24 24" focusable="false"><path d="M0 0H24V24H0z"/><path fill="#74767B" fill-rule="evenodd" d="M4.36716 2.20689C4.65168 1.98798 5.05978 2.04117 5.27869 2.32569L8.03179 5.90396C9.30896 5.47532 10.649 5.25584 12 5.25584C13.6378 5.25584 15.2596 5.57843 16.7727 6.2052C18.2859 6.83196 19.6607 7.75063 20.8189 8.90874C21.0727 9.16258 21.0727 9.57414 20.8189 9.82798C20.565 10.0818 20.1535 10.0818 19.8996 9.82798C18.8622 8.79058 17.6307 7.96767 16.2752 7.40624C14.9198 6.8448 13.4671 6.55584 12 6.55584C10.9408 6.55584 9.88916 6.70644 8.87619 7.00145L10.2244 8.75374C10.8079 8.63826 11.4026 8.57968 12.0003 8.57968C13.2015 8.57968 14.3909 8.81628 15.5007 9.27596C16.6104 9.73563 17.6188 10.4094 18.4682 11.2588C18.722 11.5126 18.722 11.9242 18.4682 12.178C18.2143 12.4318 17.8028 12.4318 17.5489 12.178C16.8203 11.4493 15.9552 10.8713 15.0032 10.477C14.0512 10.0827 13.0308 9.87968 12.0003 9.87968C11.7083 9.87968 11.4171 9.89598 11.1281 9.92831L12.6783 11.9432C13.2101 12.0055 13.7319 12.1411 14.2286 12.3468C14.9351 12.6394 15.577 13.0684 16.1178 13.6091C16.3716 13.8629 16.3716 14.2745 16.1178 14.5283C15.8639 14.7822 15.4524 14.7822 15.1985 14.5283C14.851 14.1808 14.4497 13.8928 14.0107 13.675L19.5797 20.9131C19.7986 21.1976 19.7454 21.6057 19.4609 21.8246C19.1764 22.0435 18.7683 21.9903 18.5494 21.7058L4.24836 3.11842C4.02945 2.8339 4.08264 2.4258 4.36716 2.20689ZM3.1811 8.90874C3.91122 8.17862 4.7275 7.54367 5.61026 7.01703L6.40918 8.05541C5.56737 8.542 4.79084 9.13748 4.10034 9.82798C3.8465 10.0818 3.43494 10.0818 3.1811 9.82798C2.92726 9.57413 2.92726 9.16258 3.1811 8.90874ZM5.53241 11.2588C6.16117 10.63 6.87704 10.0975 7.65667 9.67681L8.46155 10.7229C7.71977 11.0977 7.04108 11.5886 6.45165 12.178C6.19781 12.4318 5.78625 12.4318 5.53241 12.178C5.27857 11.9242 5.27857 11.5126 5.53241 11.2588ZM7.88254 13.6091C8.41153 13.0801 9.03738 12.6581 9.72577 12.3661L10.553 13.4413C10.4574 13.4736 10.3627 13.5091 10.2692 13.5478C9.72043 13.7751 9.2218 14.1083 8.80178 14.5283C8.54794 14.7822 8.13638 14.7822 7.88254 14.5283C7.6287 14.2745 7.6287 13.8629 7.88254 13.6091ZM10.5248 15.3379C10.928 15.1709 11.3561 15.0738 11.7909 15.0502L13.5556 17.3437L12.2121 18.6872C12.0949 18.8044 11.905 18.8044 11.7878 18.6872L9.48631 16.3857C9.36915 16.2685 9.36843 16.0776 9.49434 15.9699C9.80198 15.7068 10.1496 15.4933 10.5248 15.3379Z"/></svg>

<svg xmlns="http://www.w3.org/2000/svg" fill="none" viewBox="0 0 24 24" focusable="false"><path fill="#74767B" fill-rule="evenodd" d="M4.36 2.2a.65.65 0 0 1 .91.12L8.03 5.9a12.453 12.453 0 0 1 12.78 3c.26.26.26.67 0 .92a.64.64 0 0 1-.92 0 11.1 11.1 0 0 0-3.62-2.42c-1.36-.56-2.81-.85-4.27-.85-1.06 0-2.12.15-3.13.45l1.35 1.75c.58-.12 1.18-.18 1.78-.18a9.15 9.15 0 0 1 6.46 2.68c.26.26.26.67 0 .92a.64.64 0 0 1-.92 0c-.72-.73-1.59-1.3-2.54-1.7-.95-.39-1.97-.6-3-.6-.3 0-.59.02-.88.05l1.55 2.02a5.8 5.8 0 0 1 3.44 1.66c.26.26.26.67 0 .92a.64.64 0 0 1-.92 0c-.34-.34-.75-.63-1.18-.85l5.56 7.24c.22.28.17.69-.11.91-.29.22-.7.17-.92-.12L4.24 3.11a.65.65 0 0 1 .12-.91M3.18 8.9q1.095-1.095 2.43-1.89l.79 1.04c-.84.49-1.61 1.08-2.3 1.77a.64.64 0 0 1-.92 0 .64.64 0 0 1 0-.92m2.35 2.35c.63-.62 1.34-1.16 2.12-1.58l.81 1.05c-.75.37-1.42.86-2.01 1.45a.64.64 0 0 1-.92 0 .64.64 0 0 1 0-.92m2.35 2.35a5.9 5.9 0 0 1 1.84-1.24l.83 1.08c-.1.03-.19.06-.29.1-.54.23-1.04.56-1.46.98a.64.64 0 0 1-.92 0 .64.64 0 0 1 0-.92m2.64 1.73c.4-.16.83-.26 1.27-.28l1.76 2.29-1.34 1.34c-.12.12-.31.12-.43 0l-2.3-2.3a.282.282 0 0 1 .01-.42c.31-.26.65-.47 1.03-.63"/></svg>
